-----BEGIN PGP PUBLIC KEY BLOCK-----

mQINBGHZnpQBEADraLIvX8eGen7KerqnomrmeZBezsAb1InE2G/uoQhQ/YXwGsq3
seEkSGPr5WWR2u1ywlitb7DX9uGLj5Mb0QhTHATzyN7gs/c00TShZtnWsq8p6jpn
vmbfdSvjikLHJLTnhB/D5BSR0/nVZdkW/LuZaGltgQCacZ+qjNYiJJshZsGblV5e
QJqztPL1wLRpCGBbCU5QmNNFjQrOGZh+M3txSRwj5daduuH6zlK4hgDKubo7p6Ul
ZAMOMZQpQzdDJhRCxOoCGSKA10xUywDtWZkXcjbWJsHGH38R4IFQBNBG1qccRt4t
SJE8edINHl4J16H3ppIHZYGMM8gBMqpBZhpk9z8sIBCsIimnV3k/ZWVavWtyIO6r
v7Kv1uY37dfL8AWVQDGiXIwdo7Na7hlJNMe+NWEpl1cT+3wxOpr2NZYKqbWOCjLJ
EVfh8Ea6ib+YJLvfWzhEdqTozhMi5yw9yck6wqp6+APEf4h3v/EPu2gv6KIKk5ut
IL0Bo949B7tDVypOAh1WI54vRn8GH7xWqMqLs4wA5N+G9I2qWCB4uF/Z0pXblXpH
iKTqP5xWNVqnVzU9g6E/iMUQtd0bkEl3Q50URvz+s6fUYk5EmI1MDS0CnjQAVdPM
Un2+jXoFpZZmAg2tdm2iatMua5c9B/Oo7zK+ctXLErcH5YU45Tm+S2kEuQARAQAB
tCtEYXZpZCBTemFrYWxsYXMgPGRhdmlkLnN6YWthbGxhc0BnbWFpbC5jb20+iQJU
BBMBCAA+FiEEq9w5L5LcUGnDKGnosFLSIxSno8YFAmHZnpQCGwEFCQPCZwAFCwkI
BwIGFQoJCAsCBBYCAwECHgECF4AACgkQsFLSIxSno8ZwlA//VdkiQxEWc92ZwJtO
agNXQwE6yGqR0YJeSRz2hg0i+2B5BcFXDQEfC4VLLIJBc51BDPUEhmxdOtFexSfx
kg2nml8aClcZtdK61cAuyoOtcl56HDug98fB0FTYX667aux69xsRdxdnzp60n+60
RwRhpdjPGJrc5QIQsR4ZuzEVw/6l6MsnH5Kyw2VzK9gNvY2zBQTEQq/tMttH5JEF
NrSKuBB9MkFZAAX24Kt/DY7TvrRn6ZWPfR2is/lDKWk7izPJEJrKIi/ZyP7Ad17N
vfdzmFaoGaZW3nN46Ps2Hk5yQW/YXg9gSy7EWB5bYZQzcnkSpLJCkcVB7CI4HWgn
z7iMIg97gEXLy4/eJuHD/vBrV+ltvFaSBAvXagMOjnOvtCLvLMtrBPY77bGEdOZO
KvjKxnP97wVACJWaL/+iebeGy2sfWQww4nXTiMToVbv3xTR+k27CY8AGFyeHxpLL
yKFe9uKxd278ZCBhlyuX6wCI0BdHg8Gx8N5YKkzaLl6Y1vs1sowz4E5Z5xZVfJLx
F/3UcA2X4c7nxkKfLzCRQhdhuxwAAjzRpQET6YeqQH/iMIueQDwmKUuJsdF7Qa4c
4sXpOrJpogF0NBrcXLK0lIK1cdOTHYvGK/S37D9k/Pb/Z467YbxpcVWV4hcUiSc/
lVRZTPuG6FYQB2orBjjsqamZClC0LERhdmlkIFN6YWthbGxhcyA8ZGF2aWQuc3ph
a2FsbGFzQHR1cmJpbmUuYWk+iQJUBBMBCAA+FiEEq9w5L5LcUGnDKGnosFLSIxSn
o8YFAmHZn2YCGwEFCQPCZwAFCwkIBwIGFQoJCAsCBBYCAwECHgECF4AACgkQsFLS
IxSno8br/A//R0wciaKob0l5qvjEqHZOea2t75TlDwLABIpdFpnhRvp6O7cLLSGr
ZUGzIDrpCc1WqUbjS/ZH7BvCCmGowBXAiqjv9PmJmEvhRQNeSCydOsW4ToboEmZE
jpoZLzNs/Xd/9Pm3OK+9XS4f16w4/1i1cMAPezVHhAShfHOTsG77QJnPsPL2XCIe
HSSsF/XsD7e9I72+d46xtiQbw7IS5YyaHxpm7wlVbnjjzjc9lxbiGs5CgEY9/BVL
8/0cspEwbI67/siEEEOfWkR5ljzdSXe/u4zEpsFtMKehhznoXW9k9aYHXWE2BbaX
RbVwGImp8pIVuRyay1I/3VWLTKcyhUOlkxtJADVNPeX+6zcV6BtJu8wFMuBf/qHK
FR0eIaJ8tJ79almAOhrbfgvYiIDoJjzUTiGv+jw+y9ms62OWY9LAtDAg8ocW6hx0
bk2dR1eEoNt+q/l5kEd+mIl/TgidZs04qACAD12/N4UA6wXRJD0JCU+x8DfBikX7
NHd3sN+y1i21srVQymxF4OzzmxhDfgAsFBjBzIrbCMU9PZGEIBxsBfITRVtvE4tr
He9k6mi6HWd4AHKcYPerIsZhj0GsIxQHCemrWJad2aorpMLsQwxijremWtYqyEUS
xB2mnKNeYL0+GYf3gzHNStBHrhyydqaTAZPr7yj71Y8k5AeYPmXMTnC5Ag0EYdmf
cwEQAL+EivQYjlv9o3YYeZezKqZWzUMLPpPjeaKWxZ7NX6ySu814Gb8IRk04nwOd
Yu47M5zGaXrsO3akg3GKk7pA78kfd3VO0kTVMa6PrPl3CMQC8xOFZd/f9ISA/cu1
qawcFDMaHzyoNNNsFi/YY87ZTVrehcO9jpkmVMm0Wl3VZz3MIFZbfjjwO5DDAqO/
PufLUu6AHn0TIJos03Ufz+umKV/B9xSqijbfszuzc9nI+6Tf1J05zLswtGhrg28B
rdHcuwtnfDAono9w1TE0LYt2XL/ejU952W3FLiLX28Gtgz1kBDxsHmCEV8+EySHu
vUzQNvSSVmdw9n4uGq7pdkn6C6odhE3AnE85pzLmeAOuSvM38Q9+WoCchZ3lTYrY
B0Jr6ObIC2OG7nwWWC6AwYvkVw5uZIOc+7cEUZVOhB5E1TSb5gfkZuWm391bGBE4
IwjIjPqBJRUkAzh3lWNOxEJLpb7zEz0q1y3fduGtpW1TFO7PZSez4dEruMEkLrVc
uSx9dfOoD4HF9D4Y0TGG6ikUdbFYTSXJ2wI0+rmiXQFWHH6VL2CnZ5yu/mwi+FPx
Yta8rC+TPodByuRbuI3nyZHZ+cVAZI9dW7AyzKPFCOQYcepYO6722Z89Xlesn33F
YrEMxIiHJ51ouYonDm0nSahhOEr90Id1NrGoMLTmmVAMHnUBABEBAAGJBHIEGAEI
ACYWIQSr3DkvktxQacMoaeiwUtIjFKejxgUCYdmfcwIbAgUJA8JnAAJACRCwUtIj
FKejxsF0IAQZAQgAHRYhBMikPGnmuTxE+IbGjAe/lmnbnCQmBQJh2Z9zAAoJEAe/
lmnbnCQmx58QAJ0kiT/RwL2qPNNudyQ1GDUFkUeA0G7agZIyzIvF0i9Pf5r9kiHF
3xiVSoCdOxqE2oFE/HxDAaRFj4CffSm+86oVr3bb6frL9J+0PhTWWvZlUtmbioBx
3YMacZ1tpBx0xA9JwDfnJQYRVbikX+N2MjFFvrloAjLhV5eq99fQXk9dcMZBqrQV
r1wzjzJiTegPKBRJ8PQYosMybad8tZhTZj+c/L7lA/k/pbe1OJysCyfgVgrmcFEv
PUevG1fB1LromWW5PPUtLvQ5jzUBEPU5m8i81Fat28js+NhvcsdUQ9vOo+79ztYl
kGlz4HBPv6RKUXG9FTikEVFwggWs8DW5enC3Kxr/dxHEe7m9FV2UFBJdQ+PzPHCr
HCubV3ju5elqxC15/hj5XViM/5gEvKwhsy/5gvwm2iUbs8mFlpR4Edrz+YG5jlRS
ra2d4SDBX6b/eSMyJ+ynHNRxOID2/+xoLQZqLlLhYMEaUW9te+NH+l8rLHMxa2AT
Z9C9NWauURLo16MGmbUGiiPbBGgit+a1ZWRIwc7ly7NMnWuhAddKWlZuzprwwU71
BCdg/h16oDucNYBKPt2MSBf16fRIla05L9SFZnE2hUfXeMOc8EtUU4uZqksjqEaA
gsbOrqLPg2JfR44wAIDfDVh1w0lchkhXxOYMOhqZv4xEZ4WOy2ZfWAjXdRUP/1n5
mwIaDGFThVU/a89RSGwGgMM+TJ/On5lsK9NBtyXtR/qeB4zDpsgmUryY3SPtKSBE
7IYes9VGNAIM3jjx8SJ8O0qZFz2KHsENdjjSvSWbXsfXZTY7QvvoNgvn2nFAOxh2
2huDD0ciHuWUb08g7L+SkQUFTx814AzIe2ovROfRtlg0U8bTkctrC3lzodx9Ylh0
+cT6yDFMKX41x7KJBU8Ko9YX46cp403yHmcTiEa227s0SAwj3enN1J82VVmuuT0e
tkkYSaI5Xkw404uhLiMgkXkt3USgBA8V4DAxqeXhbERDyW2WfQQ+wMyORKDYXaw6
sGiyoFnv+UsRZDs/5p5n8vfYyinL8U5zwdsqMyTIuxRUYaIZHG3w5d1Y93W84s4U
msFhg/66vlfk/fAe7fTYAPPBa+4/TlKqVGmBy9+cvt1z5jIthCQ4a4HP/d38l6hb
0YfaKByNftGE5C+OXIJ5LP/e4W2RLbRBTdgGynL87ucKpJPnDZP40zTPZrKR/PvY
fjIyLGB5DUoyOwiF5o/CJqJakda6A6+Rz6X4YbuNlU7Rot7OIGJIOaQGSGu+0qzg
6wHHuOkJ0T8gHx7tFwDJ38KfCwnkBZQI/Q1VWEO9xABjxtdW+FjQVhAZYenCNoEo
vSBktvmaWRTcYQQFm9QqM7jLw1Ngi6ZAjRSK7FssuQINBGHZn40BEADidYHML3DL
zWOVrtyLrSHxESsU8Pyx+kyXC19iA28RFSXxjEDJRFQh33EtNiGZE7g3p5awOFUK
81ZPOTJxG10N6W2uBSjBG8UZjnpvTdad55P3lH8/CKnHCAHNYDGWIK3Hp+x/DUK4
2l9aO+PCsTRlnFypglB7wn2iIoJCMVr/TZdzxpT16tcDo0jT1eQUa32i5cZS6SvO
ELr1dLWW9ZU5hALEb9q1Cvlh4qajZVETNbBl9KqAWV+BRH1SVswvhwtOvA8y1cDP
apy78q9JBEFZcpm1F/Q8Ulb1tt+0zo2iCCAr/xBcJCkTtuNRlFnpb2MAaY7jBNdJ
n4zqR8jjb5kIf/+roKycQupQmGrigaCu6KMdTOmI7YVIf9m9FazsXrHaNe1Moz4a
wwp4V6itTkVZC9f4Y4rpKr2Hlms3/FN3nTlRLUeKeRNLQnV/gHAjBwY6XeakEkti
TSNfDL/nSmOM+SZTxiF05A1brs5/ssUiHjQnciJ5MaBmixFmiPQOJ7MDee5ey4yG
YULSHozS0Yqfypz+yXB2oXrm/8gG7TtISoP7gYKoUBRJTKeTQVkD6YzUgIwQhd2E
U+OfWdCC9nXc73R57xUgAG1EZUZAw/5bMpT5COMSMztzdBspJ2urgtFVAwvy/iiL
jEy48gw8asLAD50nnNV8+PjpcmRuhmenNQARAQABiQI8BBgBCAAmFiEEq9w5L5Lc
UGnDKGnosFLSIxSno8YFAmHZn40CGwwFCQPCZwAACgkQsFLSIxSno8YaoA//ddp9
Zgf5HbA0592JKmvvBLEjSMnkel7k52G4y2DeEJ9Si/oJPbHH4VXHhvEDhakpMxbW
HB+ajqqfpZAfHxyNpQfElvSUL+PQCQ/6TMrpIOqLlWgN9f//0uJjDiTrGf9xNH/6
MJq4Zgu8zxHgymQK1PhgwB+yn4bTS7Rd3PdDjnSAfQycC+IZFVoVQxGDYgRi3SeG
/sjj1g6XCeEVVn4p7fT7/cKxmF2ZS28FAA+zdGgdCCoSEyl5Z7gvEohu8n5NhU7d
HL1AVrZckucuW8P/P3kvcIOCtXNIoP4dJ4IUry36z9p7GR4MDvbNMDwmHAxd332d
bFVkNQl35ANvEzqwM/vUi6eEBWzQQVb8VqHOB8e2baOwfWEfMBzl8F1PDjLw0Qgq
dF/E9YyjF122tNkeqljoqcpg6R0bP4dR/ravHMQOkGsa+qAW1d6yzSUpKw4Wp0Sc
iLBuumsGKXC1URVi5MX4/q6F/y3dMNx+7nya0kx8kjpg3/ygsdYzaUavsaqotv/T
RpOevb43yufusRRAPgZi4WGqKtQhv+jzSAQpTJiEzfpHVT9slcFobMiKIM6BVoJj
UoDBnAAls5LWc7ExliM1xa3fDBpwPyo7c7HupomUMA1r6SuwhYsoRnnLivdWnoXC
VGjsyu8qkhOsuD9xBI/G4SY5Nx0q0Ubgc5UE7cS5Ag0EYdmfpAEQAMaqHxaxC4gv
elMJ7tPhi//OABw8QQ8z6f0A0c7+5IcHCHkZ8vYdm4hCTarmcf6ZtvhCuCzU8o8h
3HgsUL5cNVQGYnynf6zEsDpTLfLwTO4e4vcP7ZEPuX4vQl1HY1BkDtZqLoPRxH/+
UYJ1AqG2rYK3hVmpegD3n7ObTkPZl+tkGrdVkmrzn+q3LxEtDRgE2vwdVrVEIcQR
oo0zO0tCHf3VKLfXR6hE1XM26rWrSnyQN0lqq32w2H1MPo79tbpcnHLlMgo9X3ng
gzQPv6tSkv4bophFeBQbfok/cI6cyitF5a2IZmQFrnytIBJ7M+TWtNR+0kXtTBeB
fcelVFCXsJM0hfoSr4GUA5svQLQQV/TeOU3YsIHxVvvQ9IVvdcL51SN7UNUpqMIf
JxfgGJWbA6w8JcUmK+KTQp+gkP7P0NhOB4dn9kh6rMEcBSnlB2dqgQjM6OWMRZno
41pSpNVtRoh6p4Qk5a+rIb1ZDQ3e3wg2VO/JJq7Dm5pPilUf0Fdu3x6JEe9la7xc
b08B0CKuAmSBbmjuMvXioNZ9hPghfN9Mxoj66kf9xW+m5HD8DycEMGvW216pm4Tk
WjnRKSzxb65oOJvFPvzCP/eFputZtxQsQvhlqgslEqf0bMvPae//oI8MyW8pPcWH
zrmgzA/W7z4j3E2qkSu2g/AHrL7e8JA3ABEBAAGJAjwEGAEIACYWIQSr3DkvktxQ
acMoaeiwUtIjFKejxgUCYdmfpAIbIAUJA8JnAAAKCRCwUtIjFKejxm9WEACU5Kh6
S+a/X917bGTSswozRT9FReZNr/9dofWi4G09IHlib9sHTw9NF631mU+7LlwazK8Y
Kvgx8fCpYBQoRE0Tz7HyM2L65inYLVR174yT6T3j3C7wWKE5gECOvUnpBqTWV85q
DBgMkOeF78JBEsv64gQhirtSJ5s2+qxrlbkS5AO54PFWlqe2d/ljD4W5JVNt85I8
rorPh4tL9j9T5wImQd+P8dPQzf9DOQ67972s8F+zyExSDly5oUFrmpqbE1gj3gHg
81H1V0IbUC1k6iVCnG4TPgadK4TdUVeSGyi6osoKM5yenbTboE8SRJLQnv3EMqk7
/4LuA1NfkreVBsN7d0j96gKhv5I2sjw7yj2QjTbZ8rmYezNb0hoCiya6D+X3Ejf3
KxXTv50rkDmgmbvNYLFnkvciYQObXthXghTdmubvLfOSgOvF+6pxBAMJM2qwAseo
9qpMJFgWIkhenj4HP/p3px9oHwGQR0irRFpI2c5XUIu4uRehiRNbcnYzPiXfm97Z
jpGezcF4dKxEAmDprJ7/ol9ncarGB/pVIGToFDA0YHWRzIBKpQ/wpJ70LKhjsrv8
tXnTVN6R+dyAZKnDtn+cUcqZjYXOpabtuOp8+Em4s3R+E5Isxt1PxPz9dcomcPJm
rkMF7gHVBU/cVVSEiPcoFDDSio+vxXEyjXTqnA==
=xhgl
-----END PGP PUBLIC KEY BLOCK-----